images/next.svg

<svg width="40" height="58" viewBox="0 0 40 58" fill="none" xmlns="http://www.w3.org/2000/svg">
<g filter="url(#filter0_d_571_1054)">
<path d="M12.6045 1.38927C14.4027 -0.463089 17.318 -0.463089 19.1162 1.38927L38.6514 21.5131C39.5833 22.4731 40.0323 23.7423 39.9982 25.0001C40.0323 26.2579 39.5833 27.5269 38.6514 28.4869L19.1162 48.6107C17.318 50.4631 14.4027 50.4631 12.6045 48.6107L9.34863 45.2568C7.55046 43.4044 7.55046 40.4011 9.34863 38.5488L22.5011 25L9.34863 11.4511C7.55046 9.59877 7.55046 6.59558 9.34863 4.74322L12.6045 1.38927Z" fill="#026FD4"/>
</g>
<defs>
<filter id="filter0_d_571_1054" x="0" y="0" width="40" height="58" filterUnits="userSpaceOnUse" color-interpolation-filters="sRGB">
<feFlood flood-opacity="0" result="BackgroundImageFix"/>
<feColorMatrix in="SourceAlpha" type="matrix" values="0 0 0 0 0 0 0 0 0 0 0 0 0 0 0 0 0 0 127 0" result="hardAlpha"/>
<feOffset dx="-4" dy="4"/>
<feGaussianBlur stdDeviation="2"/>
<feComposite in2="hardAlpha" operator="out"/>
<feColorMatrix type="matrix" values="0 0 0 0 0 0 0 0 0 0 0 0 0 0 0 0 0 0 0.25 0"/>
<feBlend mode="normal" in2="BackgroundImageFix" result="effect1_dropShadow_571_1054"/>
<feBlend mode="normal" in="SourceGraphic" in2="effect1_dropShadow_571_1054" result="shape"/>
</filter>
</defs>
</svg>

<svg width="40" height="58" fill="none" xmlns="http://www.w3.org/2000/svg"><g filter="url(#a)"><path d="M12.604 1.39a4.51 4.51 0 0 1 6.512 0l19.535 20.123A4.808 4.808 0 0 1 39.998 25a4.807 4.807 0 0 1-1.347 3.487L19.116 48.61a4.51 4.51 0 0 1-6.511 0l-3.256-3.354c-1.799-1.853-1.799-4.856 0-6.708L22.5 25 9.35 11.451c-1.8-1.851-1.8-4.855-.001-6.708l3.255-3.354Z" fill="#026FD4"/></g><defs><filter id="a" x="0" y="0" width="40" height="58" filterUnits="userSpaceOnUse" color-interpolation-filters="sRGB"><feFlood flood-opacity="0" result="BackgroundImageFix"/><feColorMatrix in="SourceAlpha" values="0 0 0 0 0 0 0 0 0 0 0 0 0 0 0 0 0 0 127 0" result="hardAlpha"/><feOffset dx="-4" dy="4"/><feGaussianBlur stdDeviation="2"/><feComposite in2="hardAlpha" operator="out"/><feColorMatrix values="0 0 0 0 0 0 0 0 0 0 0 0 0 0 0 0 0 0 0.25 0"/><feBlend in2="BackgroundImageFix" result="effect1_dropShadow_571_1054"/><feBlend in="SourceGraphic" in2="effect1_dropShadow_571_1054" result="shape"/></filter></defs></svg>
